austria/municipalities/40415.svg

<?xml version="1.0" encoding="UTF-8"?>
<!DOCTYPE svg PUBLIC "-//W3C//DTD SVG 1.1//EN" "http://www.w3.org/Graphics/SVG/1.1/DTD/svg11.dtd">
<svg xmlns="http://www.w3.org/2000/svg" version="1.1" width="166px" height="207px" style="shape-rendering:geometricPrecision; text-rendering:geometricPrecision; image-rendering:optimizeQuality; fill-rule:evenodd; clip-rule:evenodd" xmlns:xlink="http://www.w3.org/1999/xlink">
<g><path style="opacity:1" fill="#000000" d="M -0.5,-0.5 C 54.8333,-0.5 110.167,-0.5 165.5,-0.5C 165.5,44.8333 165.5,90.1667 165.5,135.5C 160.213,165.18 143.879,186.68 116.5,200C 109.484,202.508 102.484,204.675 95.5,206.5C 86.8333,206.5 78.1667,206.5 69.5,206.5C 39.0081,200.483 17.5081,183.149 5,154.5C 2.51778,147.535 0.68445,140.535 -0.5,133.5C -0.5,88.8333 -0.5,44.1667 -0.5,-0.5 Z"/></g>
<g><path style="opacity:1" fill="#fe9800" d="M 82.5,9.5 C 82.779,13.3819 84.6124,16.3819 88,18.5C 88.0673,21.3108 89.234,23.4774 91.5,25C 92.0576,28.5136 92.7243,32.0136 93.5,35.5C 97.4572,32.8782 101.124,29.8782 104.5,26.5C 105.386,27.325 105.719,28.325 105.5,29.5C 107.674,29.0798 109.674,29.0798 111.5,29.5C 110.334,32.5032 108.667,35.1698 106.5,37.5C 107.833,38.1667 109.167,38.8333 110.5,39.5C 108.528,43.1051 105.861,46.1051 102.5,48.5C 105.833,50.5 109.167,52.5 112.5,54.5C 110.577,55.3078 108.577,55.8078 106.5,56C 107.833,57.6667 109.167,59.3333 110.5,61C 105.844,61.6655 101.177,62.1655 96.5,62.5C 96.6741,64.861 97.0074,67.1944 97.5,69.5C 92.7858,69.6469 88.1191,69.3136 83.5,68.5C 83.1402,85.8653 83.6402,103.199 85,120.5C 88.5875,114.412 92.7542,108.745 97.5,103.5C 93.9362,100.705 92.2695,97.0385 92.5,92.5C 96.4756,92.8648 97.4756,91.3648 95.5,88C 95.796,86.1118 96.296,84.2784 97,82.5C 98.439,84.0139 99.939,84.3473 101.5,83.5C 102.367,80.0158 103.534,76.6825 105,73.5C 105.739,75.2205 106.573,76.8872 107.5,78.5C 108.167,78.1667 108.833,77.8333 109.5,77.5C 110.833,79.5 112.167,81.5 113.5,83.5C 117.155,78.5137 121.155,73.847 125.5,69.5C 126.728,73.2343 128.395,73.401 130.5,70C 131.833,69.3333 133.167,69.3333 134.5,70C 131.023,72.4962 131.023,74.6629 134.5,76.5C 133.294,79.0794 131.961,81.5794 130.5,84C 131.047,84.9246 131.713,85.7579 132.5,86.5C 138.014,84.321 143.68,83.9876 149.5,85.5C 148.289,86.7202 148.289,87.8869 149.5,89C 151.833,90 154.167,91 156.5,92C 153.654,92.8793 152.987,94.5459 154.5,97C 153.167,98 151.833,99 150.5,100C 145.16,101.62 139.827,102.953 134.5,104C 137.317,106.638 139.65,109.638 141.5,113C 139.285,113.17 137.285,113.837 135.5,115C 138.08,118.158 140.413,121.492 142.5,125C 140.323,125.345 138.323,124.845 136.5,123.5C 135.259,124.037 134.092,124.704 133,125.5C 129.344,123.182 125.677,120.849 122,118.5C 120.868,122.76 119.201,126.76 117,130.5C 115.333,128.833 113.667,127.167 112,125.5C 110.89,127.037 109.39,127.703 107.5,127.5C 108.46,123.805 108.46,120.139 107.5,116.5C 106.252,117.04 105.085,117.707 104,118.5C 102.09,115.65 100.924,112.483 100.5,109C 100.15,107.743 99.4835,107.409 98.5,108C 89.7574,116.398 86.0908,126.565 87.5,138.5C 98.9538,140.62 106.287,147.287 109.5,158.5C 122.764,161.265 131.431,169.098 135.5,182C 134.013,184.821 131.846,186.987 129,188.5C 127.292,172.628 118.459,165.295 102.5,166.5C 101.556,150.176 92.889,143.009 76.5,145C 66.7743,148.889 62.1076,156.056 62.5,166.5C 46.7149,165.474 37.8816,172.808 36,188.5C 33.6969,186.607 31.5302,184.607 29.5,182.5C 33.2342,169.268 41.9009,161.435 55.5,159C 58.5183,147.48 65.8516,140.647 77.5,138.5C 79.3741,126.401 75.7074,116.234 66.5,108C 65.5165,107.409 64.8499,107.743 64.5,109C 63.5553,112.301 62.3886,115.467 61,118.5C 59.3731,116.688 57.8731,116.521 56.5,118C 57.3672,121.105 57.7006,124.272 57.5,127.5C 55.6096,127.703 54.1096,127.037 53,125.5C 51.3333,127.167 49.6667,128.833 48,130.5C 46.2268,126.613 44.2268,122.947 42,119.5C 38.9279,120.953 36.0946,122.787 33.5,125C 31.7166,125.232 30.0499,124.732 28.5,123.5C 26.9446,123.722 25.6113,124.389 24.5,125.5C 24.5656,121.522 26.2323,118.022 29.5,115C 28.0953,113.731 26.4286,113.231 24.5,113.5C 25.3354,109.676 27.3354,106.51 30.5,104C 23.773,103.48 17.4396,101.48 11.5,98C 12.1081,95.8159 11.4414,93.8159 9.5,92C 11.6488,90.8362 13.8154,89.6695 16,88.5C 16.4922,87.451 16.3256,86.451 15.5,85.5C 21.3196,83.9876 26.9863,84.321 32.5,86.5C 33.987,82.7589 33.3203,79.4256 30.5,76.5C 33.0806,74.3263 33.0806,72.1596 30.5,70C 33.4066,69.1455 35.7399,69.9788 37.5,72.5C 38.3857,71.675 38.719,70.675 38.5,69.5C 39.675,69.281 40.675,69.6143 41.5,70.5C 44.8333,74.8333 48.1667,79.1667 51.5,83.5C 52.919,81.6641 54.0857,79.6641 55,77.5C 56.1827,78.731 57.3493,78.731 58.5,77.5C 59.4135,72.2805 60.5801,72.2805 62,77.5C 62.4966,79.8098 62.6633,82.1432 62.5,84.5C 64.5824,84.528 66.4157,83.8613 68,82.5C 68.4983,85.8168 68.665,89.1501 68.5,92.5C 69.8333,92.5 71.1667,92.5 72.5,92.5C 72.7071,97.2012 71.0405,101.035 67.5,104C 72.7654,109.263 77.2654,115.096 81,121.5C 81.4999,103.836 81.6666,86.1698 81.5,68.5C 76.8338,69.6514 72.1671,69.6514 67.5,68.5C 68.3482,66.5914 68.6816,64.5914 68.5,62.5C 63.8228,62.1655 59.1561,61.6655 54.5,61C 55.8333,59.3333 57.1667,57.6667 58.5,56C 56.4233,55.8078 54.4233,55.3078 52.5,54.5C 55.8333,52.5 59.1667,50.5 62.5,48.5C 59.4871,45.6513 56.8204,42.4847 54.5,39C 55.938,38.7811 57.2713,38.2811 58.5,37.5C 56.1895,35.0457 54.5228,32.2124 53.5,29C 55.4247,29.1349 57.4247,29.3016 59.5,29.5C 59.3505,28.448 59.5172,27.448 60,26.5C 63.7427,29.6207 67.576,32.6207 71.5,35.5C 72.3236,32.2152 72.8236,28.8818 73,25.5C 76.0273,22.9775 78.3607,19.9775 80,16.5C 80.7436,14.1003 81.5769,11.767 82.5,9.5 Z"/></g>
<g><path style="opacity:1" fill="#000000" d="M 101.5,38.5 C 96.3353,47.6722 90.002,56.0055 82.5,63.5C 74.3846,55.3825 67.3846,46.3825 61.5,36.5C 61.6667,36.1667 61.8333,35.8333 62,35.5C 67.9526,43.7877 74.2859,51.7877 81,59.5C 82,7.5 83,7.5 84,59.5C 90.1272,52.5578 95.9606,45.5578 101.5,38.5 Z"/></g>
<g><path style="opacity:1" fill="#000000" d="M 101.5,38.5 C 101.461,37.2438 101.961,36.2438 103,35.5C 103.585,36.9976 103.085,37.9976 101.5,38.5 Z"/></g>
<g><path style="opacity:1" fill="#000000" d="M 120.5,82.5 C 121.254,80.5541 122.588,79.7207 124.5,80C 123.529,81.4813 122.196,82.3146 120.5,82.5 Z"/></g>
<g><path style="opacity:1" fill="#000000" d="M 44.5,82.5 C 43.2438,82.5386 42.2438,82.0386 41.5,81C 42.9976,80.4153 43.9976,80.9153 44.5,82.5 Z"/></g>
<g><path style="opacity:1" fill="#000000" d="M 44.5,82.5 C 46.5441,83.0312 48.2107,84.1978 49.5,86C 47.2285,85.9232 45.5618,84.7565 44.5,82.5 Z"/></g>
<g><path style="opacity:1" fill="#000000" d="M 120.5,82.5 C 120.167,83.5 119.5,84.1667 118.5,84.5C 118.5,83.1667 119.167,82.5 120.5,82.5 Z"/></g>
<g><path style="opacity:1" fill="#000000" d="M 118.5,84.5 C 117.746,86.4459 116.412,87.2793 114.5,87C 115.471,85.5187 116.804,84.6854 118.5,84.5 Z"/></g>
<g><path style="opacity:1" fill="#000000" d="M 60.5,98.5 C 61.9616,99.4577 63.2949,100.624 64.5,102C 57.5,105.167 50.5,108.333 43.5,111.5C 42.3044,111.154 42.3044,110.654 43.5,110C 48.5507,106.903 53.884,104.403 59.5,102.5C 45.7428,96.9789 31.4095,93.8122 16.5,93C 31.424,92.043 45.7573,94.543 59.5,100.5C 60.2975,100.043 60.6309,99.3764 60.5,98.5 Z"/></g>
<g><path style="opacity:1" fill="#000000" d="M 119.5,109.5 C 112.974,107.574 106.641,105.074 100.5,102C 102.37,99.9604 104.37,98.1271 106.5,96.5C 106.489,98.0174 105.823,99.1841 104.5,100C 113.242,97.1776 122.242,94.8443 131.5,93C 137.167,92.3333 142.833,92.3333 148.5,93C 133.574,93.8167 119.241,96.9834 105.5,102.5C 110.436,104.467 115.103,106.8 119.5,109.5 Z"/></g>
<g><path style="opacity:1" fill="#000000" d="M 60.5,98.5 C 58.9256,98.0629 57.7589,97.0629 57,95.5C 56.3333,94.8333 56.3333,94.1667 57,93.5C 58.8022,94.7893 59.9688,96.4559 60.5,98.5 Z"/></g>
<g><path style="opacity:1" fill="#000000" d="M 106.5,96.5 C 106.461,95.2438 106.961,94.2438 108,93.5C 108.585,94.9976 108.085,95.9976 106.5,96.5 Z"/></g>
<g><path style="opacity:1" fill="#000000" d="M 119.5,109.5 C 120.756,109.461 121.756,109.961 122.5,111C 121.002,111.585 120.002,111.085 119.5,109.5 Z"/></g>
<g><path style="opacity:1" fill="#000000" d="M 128.5,115.5 C 126.804,115.315 125.471,114.481 124.5,113C 126.412,112.721 127.746,113.554 128.5,115.5 Z"/></g>
<g><path style="opacity:1" fill="#000000" d="M 36.5,115.5 C 37.0024,113.915 38.0024,113.415 39.5,114C 38.7562,115.039 37.7562,115.539 36.5,115.5 Z"/></g>
<g><path style="opacity:1" fill="#000000" d="M 36.5,115.5 C 36.1667,116.5 35.5,117.167 34.5,117.5C 34.5,116.167 35.1667,115.5 36.5,115.5 Z"/></g>
<g><path style="opacity:1" fill="#000000" d="M 128.5,115.5 C 129.833,115.5 130.5,116.167 130.5,117.5C 129.5,117.167 128.833,116.5 128.5,115.5 Z"/></g>
<g><path style="opacity:1" fill="#000000" d="M 34.5,117.5 C 33.8783,118.627 33.045,119.627 32,120.5C 31.4808,118.511 32.3141,117.511 34.5,117.5 Z"/></g>
<g><path style="opacity:1" fill="#000000" d="M 130.5,117.5 C 132.028,117.517 132.528,118.184 132,119.5C 131.283,118.956 130.783,118.289 130.5,117.5 Z"/></g>
<g><path style="opacity:1" fill="#fefffe" d="M -0.5,133.5 C 0.68445,140.535 2.51778,147.535 5,154.5C 17.5081,183.149 39.0081,200.483 69.5,206.5C 46.1667,206.5 22.8333,206.5 -0.5,206.5C -0.5,182.167 -0.5,157.833 -0.5,133.5 Z"/></g>
<g><path style="opacity:1" fill="#fefffe" d="M 165.5,135.5 C 165.5,159.167 165.5,182.833 165.5,206.5C 142.167,206.5 118.833,206.5 95.5,206.5C 102.484,204.675 109.484,202.508 116.5,200C 143.879,186.68 160.213,165.18 165.5,135.5 Z"/></g>
<g><path style="opacity:1" fill="#006632" d="M 79.5,146.5 C 94.3638,146.687 101.03,154.02 99.5,168.5C 103.08,168.742 106.747,168.909 110.5,169C 121.933,171.752 127.1,178.919 126,190.5C 108.316,201.376 89.1497,205.209 68.5,202C 57.8739,200.345 48.2072,196.512 39.5,190.5C 38.4274,177.559 44.4274,170.226 57.5,168.5C 60.1764,168.837 62.843,169.17 65.5,169.5C 63.8004,157.891 68.467,150.225 79.5,146.5 Z"/></g>
</svg>

<svg xmlns="http://www.w3.org/2000/svg" width="166" height="207" style="shape-rendering:geometricPrecision;text-rendering:geometricPrecision;image-rendering:optimizeQuality;fill-rule:evenodd;clip-rule:evenodd"><path style="opacity:1" d="M-.5-.5h166v136c-5.287 29.68-21.621 51.18-49 64.5a250.624 250.624 0 0 1-21 6.5h-26c-30.492-6.017-51.992-23.351-64.5-52-2.482-6.965-4.316-13.965-5.5-21V-.5z"/><path style="opacity:1" fill="#fe9800" d="M82.5 9.5c.279 3.882 2.112 6.882 5.5 9 .067 2.81 1.234 4.977 3.5 6.5a173.67 173.67 0 0 0 2 10.5 70.799 70.799 0 0 0 11-9c.886.825 1.219 1.825 1 3 2.174-.42 4.174-.42 6 0a24.834 24.834 0 0 1-5 8l4 2a26.583 26.583 0 0 1-8 9l10 6a20.211 20.211 0 0 1-6 1.5l4 5a199.497 199.497 0 0 1-14 1.5 51.639 51.639 0 0 0 1 7 68.24 68.24 0 0 1-14-1c-.36 17.365.14 34.699 1.5 52a103.87 103.87 0 0 1 12.5-17c-3.564-2.795-5.23-6.462-5-11 3.976.365 4.976-1.135 3-4.5a25.72 25.72 0 0 1 1.5-5.5c1.439 1.514 2.939 1.847 4.5 1a56.385 56.385 0 0 1 3.5-10 48.195 48.195 0 0 0 2.5 5l2-1 4 6a120.751 120.751 0 0 1 12-14c1.228 3.734 2.895 3.901 5 .5 1.333-.667 2.667-.667 4 0-3.477 2.496-3.477 4.663 0 6.5a80.406 80.406 0 0 1-4 7.5 11.392 11.392 0 0 0 2 2.5c5.514-2.179 11.18-2.512 17-1-1.211 1.22-1.211 2.387 0 3.5l7 3c-2.846.88-3.513 2.546-2 5l-4 3a164.128 164.128 0 0 1-16 4 36.104 36.104 0 0 1 7 9c-2.215.17-4.215.837-6 2a82.262 82.262 0 0 1 7 10c-2.177.345-4.177-.155-6-1.5a18.184 18.184 0 0 0-3.5 2 3808.457 3808.457 0 0 1-11-7 47.69 47.69 0 0 1-5 12l-5-5c-1.11 1.537-2.61 2.203-4.5 2 .96-3.695.96-7.361 0-11a18.08 18.08 0 0 0-3.5 2c-1.91-2.85-3.076-6.017-3.5-9.5-.35-1.257-1.016-1.591-2-1-8.743 8.398-12.41 18.565-11 30.5 11.454 2.12 18.787 8.787 22 20 13.264 2.765 21.931 10.598 26 23.5-1.487 2.821-3.654 4.987-6.5 6.5-1.708-15.872-10.541-23.205-26.5-22-.944-16.324-9.611-23.491-26-21.5-9.726 3.889-14.392 11.056-14 21.5-15.785-1.026-24.618 6.308-26.5 22a76.251 76.251 0 0 1-6.5-6c3.734-13.232 12.4-21.065 26-23.5 3.018-11.52 10.352-18.353 22-20.5 1.874-12.099-1.793-22.266-11-30.5-.984-.591-1.65-.257-2 1a67.193 67.193 0 0 1-3.5 9.5c-1.627-1.812-3.127-1.979-4.5-.5a28.501 28.501 0 0 1 1 9.5c-1.89.203-3.39-.463-4.5-2l-5 5a86.052 86.052 0 0 0-6-11 38.238 38.238 0 0 0-8.5 5.5c-1.783.232-3.45-.268-5-1.5a6.895 6.895 0 0 0-4 2c.066-3.978 1.732-7.478 5-10.5-1.405-1.269-3.071-1.769-5-1.5.835-3.824 2.835-6.99 6-9.5-6.727-.52-13.06-2.52-19-6 .608-2.184-.059-4.184-2-6 2.149-1.164 4.315-2.33 6.5-3.5.492-1.049.326-2.049-.5-3 5.82-1.512 11.486-1.179 17 1 1.487-3.741.82-7.074-2-10 2.58-2.174 2.58-4.34 0-6.5 2.907-.855 5.24-.021 7 2.5.886-.825 1.219-1.825 1-3 1.175-.219 2.175.114 3 1l10 13a26.86 26.86 0 0 0 3.5-6c1.183 1.231 2.35 1.231 3.5 0 .913-5.22 2.08-5.22 3.5 0 .497 2.31.663 4.643.5 7 2.082.028 3.916-.639 5.5-2 .498 3.317.665 6.65.5 10h4c.207 4.701-1.46 8.535-5 11.5A85.656 85.656 0 0 1 81 121.5c.5-17.664.667-35.33.5-53a28.803 28.803 0 0 1-14 0 11.989 11.989 0 0 0 1-6 199.49 199.49 0 0 1-14-1.5l4-5a20.216 20.216 0 0 1-6-1.5l10-6a54.911 54.911 0 0 1-8-9.5 10.253 10.253 0 0 0 4-1.5 21.974 21.974 0 0 1-5-8.5c1.925.135 3.925.302 6 .5a4.932 4.932 0 0 1 .5-3c3.743 3.12 7.576 6.12 11.5 9a52.204 52.204 0 0 0 1.5-10c3.027-2.523 5.36-5.523 7-9a86.227 86.227 0 0 1 2.5-7z"/><path style="opacity:1" d="M101.5 38.5a114.817 114.817 0 0 1-19 25 137.64 137.64 0 0 1-21-27l.5-1a327.502 327.502 0 0 0 19 24c1-52 2-52 3 0a474.003 474.003 0 0 0 17.5-21zM101.5 38.5c-.039-1.256.461-2.256 1.5-3 .585 1.498.085 2.498-1.5 3zM120.5 82.5c.754-1.946 2.088-2.78 4-2.5-.971 1.481-2.304 2.315-4 2.5zM44.5 82.5c-1.256.039-2.256-.461-3-1.5 1.498-.585 2.498-.085 3 1.5zM44.5 82.5c2.044.531 3.71 1.698 5 3.5-2.272-.077-3.938-1.243-5-3.5zM120.5 82.5c-.333 1-1 1.667-2 2 0-1.333.667-2 2-2zM118.5 84.5c-.754 1.946-2.088 2.78-4 2.5.971-1.481 2.304-2.315 4-2.5zM60.5 98.5a19.556 19.556 0 0 1 4 3.5l-21 9.5c-1.196-.346-1.196-.846 0-1.5a79.036 79.036 0 0 1 16-7.5c-13.757-5.521-28.09-8.688-43-9.5 14.924-.957 29.257 1.543 43 7.5.797-.457 1.13-1.124 1-2zM119.5 109.5a115.25 115.25 0 0 1-19-7.5 46.117 46.117 0 0 1 6-5.5c-.011 1.517-.677 2.684-2 3.5a241.14 241.14 0 0 1 27-7 72.496 72.496 0 0 1 17 0c-14.926.817-29.259 3.983-43 9.5a91.242 91.242 0 0 1 14 7zM60.5 98.5c-1.574-.437-2.741-1.437-3.5-3-.667-.667-.667-1.333 0-2 1.802 1.29 2.969 2.956 3.5 5zM106.5 96.5c-.039-1.256.461-2.256 1.5-3 .585 1.498.085 2.498-1.5 3zM119.5 109.5c1.256-.039 2.256.461 3 1.5-1.498.585-2.498.085-3-1.5zM128.5 115.5c-1.696-.185-3.029-1.019-4-2.5 1.912-.279 3.246.554 4 2.5zM36.5 115.5c.502-1.585 1.502-2.085 3-1.5-.744 1.039-1.744 1.539-3 1.5zM36.5 115.5c-.333 1-1 1.667-2 2 0-1.333.667-2 2-2zM128.5 115.5c1.333 0 2 .667 2 2-1-.333-1.667-1-2-2zM34.5 117.5a10.51 10.51 0 0 1-2.5 3c-.52-1.989.314-2.989 2.5-3zM130.5 117.5c1.528.017 2.028.684 1.5 2-.717-.544-1.217-1.211-1.5-2z"/><path style="opacity:1" fill="#fefffe" d="M-.5 133.5c1.184 7.035 3.018 14.035 5.5 21 12.508 28.649 34.008 45.983 64.5 52h-70v-73zM165.5 135.5v71h-70a250.624 250.624 0 0 0 21-6.5c27.379-13.32 43.713-34.82 49-64.5z"/><path style="opacity:1" fill="#006632" d="M79.5 146.5c14.864.187 21.53 7.52 20 22 3.58.242 7.247.409 11 .5 11.433 2.752 16.6 9.919 15.5 21.5-17.684 10.876-36.85 14.709-57.5 11.5-10.626-1.655-20.293-5.488-29-11.5-1.073-12.941 4.927-20.274 18-22 2.676.337 5.343.67 8 1-1.7-11.609 2.967-19.275 14-23z"/></svg>
